shared/img/client-icons/player_on.svg

<svg style="clip-rule:evenodd;fill-rule:evenodd;stroke-linejoin:round;stroke-miterlimit:1.4142" version="1.1" viewBox="0 0 16 16" xmlns="http://www.w3.org/2000/svg">
 <g transform="matrix(.125 0 0 .125 -432 -80)">
  <g id="player_on" transform="matrix(1 0 0 1.3763 3456 454.19)">
   <rect y="135" width="128" height="93" style="fill:none"/>
   <g transform="matrix(1 0 0 .72656 0 135)">
    <path d="m64 116.5c-28.949 0-52.5-23.552-52.5-52.5 0-28.949 23.551-52.5 52.5-52.5 28.948 0 52.5 23.551 52.5 52.5 0 28.948-23.552 52.5-52.5 52.5z" style="fill-rule:nonzero;fill:#1a91d0"/>
   </g>
   <g transform="matrix(1 0 0 .72656 0 135)">
    <path d="m64 14c27.57 0 50 22.43 50 50s-22.43 50-50 50-50-22.43-50-50 22.43-50 50-50m0-5c-30.375 0-55 24.625-55 55 0 30.374 24.625 55 55 55 30.374 0 55-24.626 55-55 0-30.375-24.626-55-55-55z" style="fill-rule:nonzero;fill:#1a91d0"/>
   </g>
   <g transform="matrix(1 0 0 .72656 0 135)">
    <path d="m107.32 49.565c0 19.535-19.397 35.345-43.319 35.345-23.926 0-43.313-15.811-43.313-35.345 0-19.517 19.386-35.347 43.313-35.347 23.922 0 43.319 15.83 43.319 35.347z" style="fill-rule:nonzero;fill:url(#player_on_linear1)"/>
   </g>
   <g transform="matrix(1 0 0 .72656 0 135)">
    <path d="m21.188 78.845c0-19.302 19.163-34.942 42.814-34.942 23.652 0 42.815 15.64 42.815 34.942 0 19.291-19.163 34.944-42.815 34.944s-42.814-15.653-42.814-34.944z" style="fill-rule:nonzero;fill:url(#player_on_linear2)"/>
   </g>
  </g>
 </g>
 <defs>
  <linearGradient id="player_on_linear1" x2="1" gradientTransform="matrix(0 -70.691 70.691 0 64.003 84.91)" gradientUnits="userSpaceOnUse">
   <stop style="stop-color:#1a91d0" offset="0"/>
   <stop style="stop-color:#1a91d0" offset=".3"/>
   <stop style="stop-color:#2c9ad4" offset=".38"/>
   <stop style="stop-color:#5bb0dd" offset=".53"/>
   <stop style="stop-color:#a6d4ed" offset=".76"/>
   <stop style="stop-color:#fff" offset="1"/>
  </linearGradient>
  <linearGradient id="player_on_linear2" x2="1" gradientTransform="matrix(0 69.886 -69.886 0 64.002 43.903)" gradientUnits="userSpaceOnUse">
   <stop style="stop-color:#1a91d0;stop-opacity:.4" offset="0"/>
   <stop style="stop-color:#1a91d0;stop-opacity:.4" offset=".48"/>
   <stop style="stop-color:#fff;stop-opacity:.4" offset="1"/>
  </linearGradient>
 </defs>
</svg>

<?xml version="1.0" encoding="UTF-8" standalone="no"?>
<svg width="100%" height="100%" viewBox="0 0 128 128" version="1.1" xmlns="http://www.w3.org/2000/svg" xmlns:xlink="http://www.w3.org/1999/xlink" xml:space="preserve" style="fill-rule:evenodd;clip-rule:evenodd;stroke-linejoin:round;stroke-miterlimit:1.41421;">
    <g transform="matrix(1,0,0,1,-3456,-640)">
        <g id="player_on" transform="matrix(1,0,0,1.37634,3456,454.194)">
            <rect x="0" y="135" width="128" height="93" style="fill:none;"/>
            <g transform="matrix(1,0,0,0.726562,0,135)">
                <path d="M64,116.5C35.051,116.5 11.5,92.948 11.5,64C11.5,35.051 35.051,11.5 64,11.5C92.948,11.5 116.5,35.051 116.5,64C116.5,92.948 92.948,116.5 64,116.5Z" style="fill:rgb(26,145,208);fill-rule:nonzero;"/>
            </g>
            <g transform="matrix(1,0,0,0.726562,0,135)">
                <path d="M64,14C91.57,14 114,36.43 114,64C114,91.57 91.57,114 64,114C36.43,114 14,91.57 14,64C14,36.43 36.43,14 64,14M64,9C33.625,9 9,33.625 9,64C9,94.374 33.625,119 64,119C94.374,119 119,94.374 119,64C119,33.625 94.374,9 64,9Z" style="fill:rgb(26,145,208);fill-rule:nonzero;"/>
            </g>
            <g transform="matrix(1,0,0,0.726562,0,135)">
                <path d="M107.319,49.565C107.319,69.1 87.922,84.91 64,84.91C40.074,84.91 20.687,69.099 20.687,49.565C20.687,30.048 40.073,14.218 64,14.218C87.922,14.218 107.319,30.048 107.319,49.565Z" style="fill:url(#_Linear1);fill-rule:nonzero;"/>
            </g>
            <g transform="matrix(1,0,0,0.726562,0,135)">
                <path d="M21.188,78.845C21.188,59.543 40.351,43.903 64.002,43.903C87.654,43.903 106.817,59.543 106.817,78.845C106.817,98.136 87.654,113.789 64.002,113.789C40.35,113.789 21.188,98.136 21.188,78.845Z" style="fill:url(#_Linear2);fill-rule:nonzero;"/>
            </g>
        </g>
    </g>
    <defs>
        <linearGradient id="_Linear1" x1="0" y1="0" x2="1" y2="0" gradientUnits="userSpaceOnUse" gradientTransform="matrix(4.3286e-15,-70.6914,70.6914,4.3286e-15,64.0034,84.9102)"><stop offset="0" style="stop-color:rgb(26,145,208);stop-opacity:1"/><stop offset="0.3" style="stop-color:rgb(26,145,208);stop-opacity:1"/><stop offset="0.38" style="stop-color:rgb(44,154,212);stop-opacity:1"/><stop offset="0.53" style="stop-color:rgb(91,176,221);stop-opacity:1"/><stop offset="0.76" style="stop-color:rgb(166,212,237);stop-opacity:1"/><stop offset="1" style="stop-color:white;stop-opacity:1"/></linearGradient>
        <linearGradient id="_Linear2" x1="0" y1="0" x2="1" y2="0" gradientUnits="userSpaceOnUse" gradientTransform="matrix(4.2793e-15,69.8863,-69.8863,4.2793e-15,64.0024,43.9028)"><stop offset="0" style="stop-color:rgb(26,145,208);stop-opacity:0.4"/><stop offset="0.48" style="stop-color:rgb(26,145,208);stop-opacity:0.4"/><stop offset="1" style="stop-color:white;stop-opacity:0.4"/></linearGradient>
    </defs>
</svg>
